Catalina-light/actions/16/document-edit-sign-encrypt.svg

<svg xmlns="http://www.w3.org/2000/svg" width="16" height="16" viewBox="0 0 16 16">
 <defs>
  <style id="current-color-scheme" type="text/css">
   .ColorScheme-Text { color:#5c616c; } .ColorScheme-Highlight { color:#5294e2; }
  </style>
 </defs>
 <path style="fill:currentColor" class="ColorScheme-Text" d="M 3 1 C 3 1 2 1 2 2 L 2 14 C 2 15 3 15 3 15 L 7 15 L 7 13 L 4 13 L 4 3.0039062 L 12 3.0039062 L 12 7.9902344 L 14 7.9902344 L 14 2 C 14 1 13 1 13 1 L 3 1 z M 11 8.9902344 C 9 8.9902344 9 9.9902344 9 9.9902344 L 9 11.990234 L 8 11.990234 L 8 14.990234 L 14 14.990234 L 14 11.990234 L 13 11.990234 L 13 9.9902344 C 13 9.9902344 13 8.9902344 11 8.9902344 z M 11 9.9902344 C 11.37268 9.9902344 12 10.214094 12 10.490234 L 12 11.990234 L 10 11.990234 L 10 10.490234 C 10 10.214094 10.62732 9.9902344 11 9.9902344 z"/>
</svg>

<svg width="16" height="16" viewBox="0 0 16 16" xmlns="http://www.w3.org/2000/svg">
<defs>
<style id="current-color-scheme" type="text/css">.ColorScheme-Text { color:#5c616c; } .ColorScheme-Highlight { color:#5294e2; }</style>
</defs>
<path class="ColorScheme-Text" d="m3 1s-1 0-1 1v12c0 1 1 1 1 1h4v-2h-3v-9.9961h8v4.9863h2v-5.9902c0-1-1-1-1-1h-10zm8 7.9902c-2 0-2 1-2 1v2h-1v3h6v-3h-1v-2s0-1-2-1zm0 1c0.37268 0 1 0.22386 1 0.5v1.5h-2v-1.5c0-0.27614 0.62732-0.5 1-0.5z" fill="#363636"/>
</svg>
